!!!COM: Pachelbel, Johann
!!!CDT: 1653/08//-1706/03/03/
!!!OTL: Canon in D Major
**kern	**kern	**kern	**kern	**kern
*staff5	*staff4	*staff3	*staff2	*staff1
*Icemba	*Icemba	*Ivioln	*Ivioln	*Ivioln
*clefF4	*clefG2	*clefG2	*clefG2	*clefG2
*k[f#c#]	*k[f#c#]	*k[f#c#]	*k[f#c#]	*k[f#c#]
*D:	*D:	*D:	*D:	*D:
*met(C)	*met(C)	*met(C)	*met(C)	*met(C)
*M4/4	*M4/4	*M4/4	*M4/4	*M4/4
*MM60	*MM60	*MM60	*MM60	*MM60
=1-	=1-	=1-	=1-	=1-
4D\	4f#/ 4a/ 4dd/	1r	1r	1r
4AA/	4e/ 4a/ 4cc#/	.	.	.
4BB/	4d/ 4f#/ 4b/	.	.	.
4FF#/	4c#/ 4f#/ 4a/	.	.	.
=2	=2	=2	=2	=2
*	*^	*	*	*
4GG/	2r	4B/ 4d/ 4g/	1r	1r	1r
4DD/	.	4A/ 4d/ 4f#/	.	.	.
4GG/	4B\ 4d\	2e/	.	.	.
4AA/	4A\ 4c#\	.	.	.	.
*	*v	*v	*	*	*
=3	=3	=3	=3	=3
4D\	4A/ 4d/ 4f#/	1r	1r	4ff#\
4AA/	4c#/ 4e/ 4a/	.	.	4ee\
4BB/	4B/ 4d/ 4f#/	.	.	4dd\
4FF#/	4c#/ 4f#/ 4a/	.	.	4cc#\
=4	=4	=4	=4	=4
4GG/	4B/ 4d/ 4g/	1r	1r	4b\
4DD/	4A/ 4d/ 4f#/	.	.	4a/
4GG/	4B/ 4d/ 4g/	.	.	4b\
4AA/	4A/ 4c#/ 4e/	.	.	4cc#\
=5	=5	=5	=5	=5
4D\	4A/ 4d/ 4f#/	1r	4ff#\	4dd\
4AA/	4c#/ 4e/ 4a/	.	4ee\	4cc#\
4BB/	4B/ 4d/ 4f#/	.	4dd\	4b\
4FF#/	4c#/ 4f#/ 4a/	.	4cc#\	4a/
=6	=6	=6	=6	=6
4GG/	4B/ 4d/ 4g/	1r	4b\	4g/
4DD/	4A/ 4d/ 4f#/	.	4a/	4f#/
4GG/	4B/ 4d/ 4g/	.	4b\	4g/
4AA/	4A/ 4c#/ 4e/	.	4cc#\	4e/
=7	=7	=7	=7	=7
4D\	4F#/ 4A/ 4d/	4ff#\	4dd\	4d/
4AA/	4A/ 4c#/ 4e/	4ee\	4cc#\	8a/L
.	.	.	.	8g/J
4BB/	4F#/ 4B/ 4d/	4dd\	4b\	8f#/L
.	.	.	.	8d/J
4FF#/	4A/ 4c#/ 4f#/	4cc#\	4a/	8f#/L
.	.	.	.	8e/J
=8	=8	=8	=8	=8
4GG/	4G/ 4B/ 4d/	4b\	4g/	8d/L
.	.	.	.	8B/J
4DD/	4A/ 4d/ 4f#/	4a/	4f#/	8d/L
.	.	.	.	8a/J
4GG/	4B/ 4d/ 4g/	4b\	4g/	8g/L
.	.	.	.	8b/J
4AA/	4A/ 4c#/ 4e/	4cc#\	4e/	8a/L
.	.	.	.	8g/J
=9	=9	=9	=9	=9
4D\	4A/ 4d/ 4f#/	4dd\	8d/L	8f#/L
.	.	.	8f#/J	8d/J
4AA/	4c#/ 4e/ 4a/	4cc#\	8a/L	8e/L
.	.	.	8g/J	8cc#/J
4BB/	4d/ 4f#/	4b\	8f#/L	8dd\L
.	.	.	8d/J	8ff#\J
4FF#/	4c#/ 4a/	4a/	8f#/L	8aa\L
.	.	.	8e/J	8a\J
=10	=10	=10	=10	=10
4GG/	4B/ 4d/	4g/	8d/L	8b/L
.	.	.	8B/J	8g/J
4DD/	4A/ 4d/ 4f#/	4f#/	8d/L	8a/L
.	.	.	8a/J	8f#/J
4GG/	4B/ 4d/ 4e/	4g/	8g/L	8d/L
.	.	.	8b/J	8dd/J
4AA/	4A/ 4c#/ 4a/	4e/	8a/L	8.dd\L
.	.	.	8g/J	.
.	.	.	.	16cc#\Jk
=11	=11	=11	=11	=11
*	*^	*	*	*
4D\	2a/	4d\ 4f#\	8d/L	8f#/L	16dd/LL
.	.	.	.	.	16cc#/
.	.	.	8f#/J	8d/J	16dd/
.	.	.	.	.	16d/JJ
4AA/	.	4c#\ 4e\	8a/L	8e/L	16c#/LL
.	.	.	.	.	16a/
.	.	.	8g/J	8cc#/J	16e/
.	.	.	.	.	16f#/JJ
4BB/	2f#/	4d\	8f#/L	8dd\L	16d/LL
.	.	.	.	.	16dd/
.	.	.	8d/J	8ff#\J	16cc#/
.	.	.	.	.	16b/JJ
4FF#/	.	4A\	8f#/L	8aa\L	16cc#\LL
.	.	.	.	.	16ff#\
.	.	.	8e/J	8a\J	16aa\
.	.	.	.	.	16bb\JJ
=12	=12	=12	=12	=12	=12
4GG/	2.d/	4B\	8d/L	8b/L	16gg\LL
.	.	.	.	.	16ff#\
.	.	.	8B/J	8g/J	16ee\
.	.	.	.	.	16gg\JJ
4DD/	.	4F#\	8d/L	8a/L	16ff#\LL
.	.	.	.	.	16ee\
.	.	.	8a/J	8f#/J	16dd\
.	.	.	.	.	16cc#\JJ
4GG/	.	4B\	8g/L	8d/L	16b/LL
.	.	.	.	.	16a/
.	.	.	8b/J	8dd/J	16g/
.	.	.	.	.	16f#/JJ
4AA/	4c#/	4A\	8a/L	8.dd\L	16e/LL
.	.	.	.	.	16g/
.	.	.	8g/J	.	16f#/
.	.	.	.	16cc#\Jk	16e/JJ
*	*v	*v	*	*	*
=13	=13	=13	=13	=13
4D\	4A/ 4d/ 4f#/	8f#/L	16dd/LL	16d/LL
.	.	.	16cc#/	16e/
.	.	8d/J	16dd/	16f#/
.	.	.	16d/JJ	16g/JJ
4AA/	4c#/ 4e/ 4a/	8e/L	16c#/LL	16a/LL
.	.	.	16a/	16e/
.	.	8cc#/J	16e/	16a/
.	.	.	16f#/JJ	16g/JJ
4BB/	4d/ 4f#/	8dd\L	16d/LL	16f#/LL
.	.	.	16dd/	16b/
.	.	8ff#\J	16cc#/	16a/
.	.	.	16b/JJ	16g/JJ
4FF#/	4c#/ 4f#/ 4a/	8aa\L	16cc#\LL	16a/LL
.	.	.	16ff#\	16g/
.	.	8a\J	16aa\	16f#/
.	.	.	16bb\JJ	16e/JJ
=14	=14	=14	=14	=14
*	*^	*	*	*
4GG/	4B/ 4d/ 4g/	2r	8b/L	16gg\LL	16d/LL
.	.	.	.	16ff#\	16B/
.	.	.	8g/J	16ee\	16b/
.	.	.	.	16gg\JJ	16cc#/JJ
4DD/	4d/ 4f#/	.	8a/L	16ff#\LL	16dd\LL
.	.	.	.	16ee\	16cc#\
.	.	.	8f#/J	16dd\	16b\
.	.	.	.	16cc#\JJ	16a\JJ
4GG/	4d/ 4b/	2e\	8d/L	16b/LL	16g/LL
.	.	.	.	16a/	16f#/
.	.	.	8dd/J	16g/	16e/
.	.	.	.	16f#/JJ	16b/JJ
4AA/	4c#/ 4a/	.	8.dd\L	16e/LL	16a/LL
.	.	.	.	16g/	16b/
.	.	.	.	16f#/	16a/
.	.	.	16cc#\Jk	16e/JJ	16g/JJ
*	*v	*v	*	*	*
=15	=15	=15	=15	=15
4D\	4d/ 4f#/ 4a/	16dd/LL	16d/LL	8f#\L
.	.	16cc#/	16e/	.
.	.	16dd/	16f#/	8ff#\J
.	.	16d/JJ	16g/JJ	.
4AA/	4e/ 4a/ 4cc#/	16c#/LL	16a/LL	4ee\
.	.	16a/	16e/	.
.	.	16e/	16a/	.
.	.	16f#/JJ	16g/JJ	.
4BB/	4d/ 4f#/ 4b/	16d/LL	16f#/LL	8r
.	.	16dd/	16b/	.
.	.	16cc#/	16a/	8dd\
.	.	16b/JJ	16g/JJ	.
4FF#/	4f#/ 4a/ 4cc#/	16cc#\LL	16a/LL	4ff#\
.	.	16ff#\	16g/	.
.	.	16aa\	16f#/	.
.	.	16bb\JJ	16e/JJ	.
=16	=16	=16	=16	=16
4GG/	4d/ 4g/ 4b/	16gg\LL	16d/LL	4bb\
.	.	16ff#\	16B/	.
.	.	16ee\	16b/	.
.	.	16gg\JJ	16cc#/JJ	.
4DD/	4d/ 4f#/ 4dd/	16ff#\LL	16dd\LL	4aa\
.	.	16ee\	16cc#\	.
.	.	16dd\	16b\	.
.	.	16cc#\JJ	16a\JJ	.
4GG/	4d/ 4g/ 4b/	16b/LL	16g/LL	4bb\
.	.	16a/	16f#/	.
.	.	16g/	16e/	.
.	.	16f#/JJ	16b/JJ	.
4AA/	4c#/ 4e/ 4a/	16e/LL	16a/LL	4ccc#\
.	.	16g/	16b/	.
.	.	16f#/	16a/	.
.	.	16e/JJ	16g/JJ	.
=17	=17	=17	=17	=17
4D\	4d/ 4f#/ 4a/	16d/LL	8f#\L	8ddd\L
.	.	16e/	.	.
.	.	16f#/	8ff#\J	8dd\J
.	.	16g/JJ	.	.
4AA/	4e/ 4a/ 4cc#/	16a/LL	4ee\	4cc#\
.	.	16e/	.	.
.	.	16a/	.	.
.	.	16g/JJ	.	.
4BB/	4d/ 4f#/ 4b/	16f#/LL	8r	8r
.	.	16b/	.	.
.	.	16a/	8dd\	8b\
.	.	16g/JJ	.	.
4FF#/	4d/ 4a/ 4dd/	16a/LL	4ff#\	4dd\
.	.	16g/	.	.
.	.	16f#/	.	.
.	.	16e/JJ	.	.
=18	=18	=18	=18	=18
4GG/	4g/ 4b/ 4dd/	16d/LL	4bb\	4.dd\
.	.	16B/	.	.
.	.	16b/	.	.
.	.	16cc#/JJ	.	.
4DD/	4f#/ 4a/ 4dd/	16dd\LL	4aa\	.
.	.	16cc#\	.	.
.	.	16b\	.	8dd\
.	.	16a\JJ	.	.
4GG/	4e/ 4b/ 4dd/	16g/LL	4bb\	8dd\L
.	.	16f#/	.	.
.	.	16e/	.	8gg\J
.	.	16b/JJ	.	.
4AA/	4e/ 4a/ 4cc#/	16a/LL	4ccc#\	8ee\L
.	.	16b/	.	.
.	.	16a/	.	8aa\J
.	.	16g/JJ	.	.
=19	=19	=19	=19	=19
4D\	4f#/ 4a/ 4dd/	8f#\L	8ddd\L	16aa\LL
.	.	.	.	32ff#\L
.	.	.	.	32gg\JJJ
.	.	8ff#\J	8dd\J	16aa\LL
.	.	.	.	32ff#\L
.	.	.	.	32gg\JJJ
4AA/	4e/ 4a/ 4cc#/	4ee\	4cc#\	32aa\LLL
.	.	.	.	32a\
.	.	.	.	32b\
.	.	.	.	32cc#\JJ
.	.	.	.	32dd\LL
.	.	.	.	32ee\
.	.	.	.	32ff#\
.	.	.	.	32gg\JJJ
4BB/	4d/ 4f#/ 4b/	8r	8r	16ff#\LL
.	.	.	.	32dd\L
.	.	.	.	32ee\JJJ
.	.	8dd\	8b\	16ff#\LL
.	.	.	.	32f#\L
.	.	.	.	32g\JJJ
4FF#/	4d/ 4a/	4ff#\	4dd\	32a/LLL
.	.	.	.	32b/
.	.	.	.	32a/
.	.	.	.	32g/JJ
.	.	.	.	32a/LL
.	.	.	.	32f#/
.	.	.	.	32g/
.	.	.	.	32a/JJJ
=20	=20	=20	=20	=20
4GG/	4d/ 4g/ 4b/	4bb\	4.dd\	16g/LL
.	.	.	.	32b/L
.	.	.	.	32a/JJJ
.	.	.	.	16g/LL
.	.	.	.	32f#/L
.	.	.	.	32e/JJJ
4DD/	4f#/ 4a/ 4dd/	4aa\	.	32f#/LLL
.	.	.	.	32e/
.	.	.	.	32d/
.	.	.	.	32e/JJ
.	.	.	8dd\	32f#/LL
.	.	.	.	32g/
.	.	.	.	32a/
.	.	.	.	32b/JJJ
4GG/	4g/ 4b/ 4dd/	4bb\	8dd\L	16g/LL
.	.	.	.	32b/L
.	.	.	.	32a/JJJ
.	.	.	8gg\J	16b\LL
.	.	.	.	32cc#\L
.	.	.	.	32dd\JJJ
4AA/	4e/ 4a/ 4cc#/	4ccc#\	8ee\L	32a\LLL
.	.	.	.	32b\
.	.	.	.	32cc#\
.	.	.	.	32dd\JJ
.	.	.	8aa\J	32ee\LL
.	.	.	.	32ff#\
.	.	.	.	32gg\
.	.	.	.	32aa\JJJ
=21	=21	=21	=21	=21
4D\	4f#/ 4a/ 4dd/	8ddd\L	16aa\LL	16ff#\LL
.	.	.	32ff#\L	32dd\L
.	.	.	32gg\JJJ	32ee\JJJ
.	.	8dd\J	16aa\LL	16ff#\LL
.	.	.	32ff#\L	32ee\L
.	.	.	32gg\JJJ	32dd\JJJ
4AA/	4e/ 4a/ 4cc#/	4cc#\	32aa\LLL	32ee\LLL
.	.	.	32a\	32cc#\
.	.	.	32b\	32dd\
.	.	.	32cc#\JJ	32ee\JJ
.	.	.	32dd\LL	32ff#\LL
.	.	.	32ee\	32ee\
.	.	.	32ff#\	32dd\
.	.	.	32gg\JJJ	32cc#\JJJ
4BB/	4d/ 4f#/ 4b/	8r	16ff#\LL	16dd\LL
.	.	.	32dd\L	32b\L
.	.	.	32ee\JJJ	32cc#\JJJ
.	.	8b\	16ff#\LL	16dd/LL
.	.	.	32f#\L	32d/L
.	.	.	32g\JJJ	32e/JJJ
4FF#/	4d/ 4a/	4dd\	32a/LLL	32f#/LLL
.	.	.	32b/	32g/
.	.	.	32a/	32f#/
.	.	.	32g/JJ	32e/JJ
.	.	.	32a/LL	32f#/LL
.	.	.	32f#/	32dd/
.	.	.	32g/	32cc#/
.	.	.	32a/JJJ	32dd/JJJ
=22	=22	=22	=22	=22
*	*^	*	*	*
4GG/	4B/ 4g/	2.d\	4.dd\	16g/LL	16b\LL
.	.	.	.	32b/L	32dd\L
.	.	.	.	32a/JJJ	32cc#\JJJ
.	.	.	.	16g/LL	16b/LL
.	.	.	.	32f#/L	32a/L
.	.	.	.	32e/JJJ	32g/JJJ
4DD/	4A/ 4f#/	.	.	32f#/LLL	32a/LLL
.	.	.	.	32e/	32g/
.	.	.	.	32d/	32f#/
.	.	.	.	32e/JJ	32g/JJ
.	.	.	8dd\	32f#/LL	32a/LL
.	.	.	.	32g/	32b/
.	.	.	.	32a/	32cc#/
.	.	.	.	32b/JJJ	32dd/JJJ
4GG/	4B/ 4g/	.	8dd\L	16g/LL	16b\LL
.	.	.	.	32b/L	32dd\L
.	.	.	.	32a/JJJ	32cc#\JJJ
.	.	.	8gg\J	16b\LL	16dd\LL
.	.	.	.	32cc#\L	32cc#\L
.	.	.	.	32dd\JJJ	32b\JJJ
4AA/	4A/ 4c#/ 4e/	4r	8ee\L	32a\LLL	32cc#\LLL
.	.	.	.	32b\	32dd\
.	.	.	.	32cc#\	32ee\
.	.	.	.	32dd\JJ	32dd\JJ
.	.	.	8aa\J	32ee\LL	32cc#\LL
.	.	.	.	32ff#\	32dd\
.	.	.	.	32gg\	32b\
.	.	.	.	32aa\JJJ	32cc#\JJJ
*	*v	*v	*	*	*
=23	=23	=23	=23	=23
4D\	4A/ 4d/ 4f#/	16aa\LL	16ff#\LL	8dd\L
.	.	32ff#\L	32dd\L	.
.	.	32gg\JJJ	32ee\JJJ	.
.	.	16aa\LL	16ff#\LL	8r
.	.	32ff#\L	32ee\L	.
.	.	32gg\JJJ	32dd\JJJ	.
4AA/	4c#/ 4e/ 4a/	32aa\LLL	32ee\LLL	8cc#\J
.	.	32a\	32cc#\	.
.	.	32b\	32dd\	.
.	.	32cc#\JJ	32ee\JJ	.
.	.	32dd\LL	32ff#\LL	8r
.	.	32ee\	32ee\	.
.	.	32ff#\	32dd\	.
.	.	32gg\JJJ	32cc#\JJJ	.
4BB/	4d/ 4f#/	16ff#\LL	16dd\LL	8b\L
.	.	32dd\L	32b\L	.
.	.	32ee\JJJ	32cc#\JJJ	.
.	.	16ff#\LL	16dd/LL	8r
.	.	32f#\L	32d/L	.
.	.	32g\JJJ	32e/JJJ	.
4FF#/	4A/ 4d/ 4a/	32a/LLL	32f#/LLL	8dd\J
.	.	32b/	32g/	.
.	.	32a/	32f#/	.
.	.	32g/JJ	32e/JJ	.
.	.	32a/LL	32f#/LL	8r
.	.	32f#/	32dd/	.
.	.	32g/	32cc#/	.
.	.	32a/JJJ	32dd/JJJ	.
=24	=24	=24	=24	=24
*	*^	*	*	*
4GG/	2r	4B/ 4d/ 4g/	16g/LL	16b\LL	8d/L
.	.	.	32b/L	32dd\L	.
.	.	.	32a/JJJ	32cc#\JJJ	.
.	.	.	16g/LL	16b/LL	8r
.	.	.	32f#/L	32a/L	.
.	.	.	32e/JJJ	32g/JJJ	.
4DD/	.	4A/ 4d/ 4f#/	32f#/LLL	32a/LLL	8d/J
.	.	.	32e/	32g/	.
.	.	.	32d/	32f#/	.
.	.	.	32e/	32g/JJ	.
.	.	.	32f#/	32a/LL	8r
.	.	.	32g/	32b/	.
.	.	.	32a/	32cc#/	.
.	.	.	32b/JJJ	32dd/JJJ	.
4GG/	4B\ 4d\	2e/	16g/LL	16b\LL	8d/L
.	.	.	32b/L	32dd\L	.
.	.	.	32a/JJJ	32cc#\JJJ	.
.	.	.	16b\LL	16dd\LL	8r
.	.	.	32cc#\L	32cc#\L	.
.	.	.	32dd\JJJ	32b\JJJ	.
4AA/	4A\ 4c#\	.	32a\LLL	32cc#\LLL	8e/J
.	.	.	32b\	32dd\	.
.	.	.	32cc#\	32ee\	.
.	.	.	32dd\JJ	32dd\JJ	.
.	.	.	32ee\LL	32cc#\LL	8r
.	.	.	32ff#\	32dd\	.
.	.	.	32gg\	32b\	.
.	.	.	32aa\JJJ	32cc#\JJJ	.
=25	=25	=25	=25	=25	=25
4D\	4d/ 4f#/	2A\	16ff#\LL	8dd\L	8r
.	.	.	32dd\L	.	.
.	.	.	32ee\JJJ	.	.
.	.	.	16ff#\LL	8r	8a/L
.	.	.	32ee\L	.	.
.	.	.	32dd\JJJ	.	.
4AA/	4c#/ 4e/	.	32ee\LLL	8cc#\J	8r
.	.	.	32cc#\	.	.
.	.	.	32dd\	.	.
.	.	.	32ee\JJ	.	.
.	.	.	32ff#\LL	8r	8a/J
.	.	.	32ee\	.	.
.	.	.	32dd\	.	.
.	.	.	32cc#\JJJ	.	.
4BB/	2d/	4F#\	16dd\LL	8b\L	8r
.	.	.	32b\L	.	.
.	.	.	32cc#\JJJ	.	.
.	.	.	16dd/LL	8r	8f#/L
.	.	.	32d/L	.	.
.	.	.	32e/JJJ	.	.
4FF#/	.	4A\	32f#/LLL	8dd\J	8r
.	.	.	32g/	.	.
.	.	.	32f#/	.	.
.	.	.	32e/JJ	.	.
.	.	.	32f#/LL	8r	8a/J
.	.	.	32dd/	.	.
.	.	.	32cc#/	.	.
.	.	.	32dd/JJJ	.	.
=26	=26	=26	=26	=26	=26
4GG/	4B/ 4g/	2d\	16b\LL	8d/L	8r
.	.	.	32dd\L	.	.
.	.	.	32cc#\JJJ	.	.
.	.	.	16b/LL	8d/J	8g/L
.	.	.	32a/L	.	.
.	.	.	32g/JJJ	.	.
4DD/	4A/ 4f#/	.	32a/LLL	8r	8f#/J
.	.	.	32g/	.	.
.	.	.	32f#/	.	.
.	.	.	32g/JJ	.	.
.	.	.	32a/LL	8r	8r
.	.	.	32b/	.	.
.	.	.	32cc#/	.	.
.	.	.	32dd/JJJ	.	.
4GG/	2e/	4B\ 4d\	16b\LL	8d/L	8r
.	.	.	32dd\L	.	.
.	.	.	32cc#\JJJ	.	.
.	.	.	16dd\LL	8r	8g\L
.	.	.	32cc#\L	.	.
.	.	.	32b\JJJ	.	.
4AA/	.	4A\ 4c#\	32cc#\LLL	8e/J	8r
.	.	.	32dd\	.	.
.	.	.	32ee\	.	.
.	.	.	32dd\JJ	.	.
.	.	.	32cc#\LL	8r	8ee\J
.	.	.	32dd\	.	.
.	.	.	32b\	.	.
.	.	.	32cc#\JJJ	.	.
*	*v	*v	*	*	*
=27	=27	=27	=27	=27
4D\	4A/ 4d/ 4f#/	8dd\L	8r	16ff#\LL
.	.	.	.	16f#\
.	.	8r	8a/L	16g\
.	.	.	.	16f#\JJ
4AA/	4A/ 4c#/ 4e/	8cc#\J	8r	16e\LL
.	.	.	.	16ee\
.	.	8r	8a/J	16ff#\
.	.	.	.	16ee\JJ
4BB/	4F#/ 4B/ 4d/	8b\L	8r	16dd/LL
.	.	.	.	16f#/
.	.	8r	8f#/L	16d/
.	.	.	.	16b/JJ
4FF#/	4A/ 4d/	8dd\J	8r	16a/LL
.	.	.	.	16A/
.	.	8r	8a/J	16G/
.	.	.	.	16A/JJ
=28	=28	=28	=28	=28
4GG/	4G/ 4B/ 4d/	8d/L	8r	16B/LL
.	.	.	.	16b/
.	.	8r	8g/L	16cc#/
.	.	.	.	16b/JJ
4DD/	4A/ 4d/ 4f#/	8d/J	8r	16a/LL
.	.	.	.	16A/
.	.	8r	8f#/J	16G/
.	.	.	.	16A/JJ
4GG/	4B/ 4d/ 4g/	8d/L	8r	16B/LL
.	.	.	.	16b/
.	.	8r	8g\L	16a/
.	.	.	.	16b/JJ
4AA/	4A/ 4c#/ 4e/	8e/J	8r	16cc#/LL
.	.	.	.	16c#/
.	.	8r	8ee\J	16B/
.	.	.	.	16c#/JJ
=29	=29	=29	=29	=29
4D\	4A/ 4d/ 4f#/	8r	16ff#\LL	16d/LL
.	.	.	16f#\	16dd/
.	.	8a/L	16g\	16ee/
.	.	.	16f#\JJ	16dd/JJ
4AA/	4c#/ 4e/ 4a/	8r	16e\LL	16cc#/LL
.	.	.	16ee\	16c#/
.	.	8a/J	16ff#\	16d/
.	.	.	16ee\JJ	16c#/JJ
4BB/	4B/ 4d/ 4f#/	8r	16dd/LL	16B/LL
.	.	.	16f#/	16b/
.	.	8f#/L	16d/	16a/
.	.	.	16b/JJ	16b/JJ
4FF#/	4c#/ 4f#/ 4a/	8r	16a/LL	16cc#/LL
.	.	.	16A/	16c#/
.	.	8a/J	16G/	16f#/
.	.	.	16A/JJ	16e/JJ
=30	=30	=30	=30	=30
4GG/	4B/ 4d/ 4g/	8r	16B/LL	16d\LL
.	.	.	16b/	16dd\
.	.	8g/L	16cc#/	16ee\
.	.	.	16b/JJ	16gg\JJ
4DD/	4d/ 4f#/ 4a/	8r	16a/LL	16ff#\LL
.	.	.	16A/	16f#\
.	.	8f#/J	16G/	16a\
.	.	.	16A/JJ	16ff#\JJ
4GG/	4d/ 4g/ 4b/	8r	16B/LL	16dd\LL
.	.	.	16b/	16gg\
.	.	8g\L	16a/	16ff#\
.	.	.	16b/JJ	16gg\JJ
4AA/	4c#/ 4e/ 4a/	8r	16cc#/LL	16ee\LL
.	.	.	16c#/	16a\
.	.	8ee\J	16B/	16g\
.	.	.	16c#/JJ	16a\JJ
=31	=31	=31	=31	=31
4D\	4A/ 4d/ 4f#/	16ff#\LL	16d/LL	16f#/LL
.	.	16f#\	16dd/	16a/
.	.	16g\	16ee/	16a/
.	.	16f#\JJ	16dd/JJ	16a/JJ
4AA/	4c#/ 4e/ 4a/	16e\LL	16cc#/LL	16a/LL
.	.	16ee\	16c#/	16a/
.	.	16ff#\	16d/	16a/
.	.	16ee\JJ	16c#/JJ	16a/JJ
4BB/	4B/ 4d/ 4f#/	16dd/LL	16B/LL	16f#/LL
.	.	16f#/	16b/	16f#/
.	.	16d/	16a/	16f#/
.	.	16b/JJ	16b/JJ	16f#/JJ
4FF#/	4c#/ 4f#/ 4a/	16a/LL	16cc#/LL	16f#/LL
.	.	16A/	16c#/	16f#/
.	.	16G/	16f#/	16a/
.	.	16A/JJ	16e/JJ	16a/JJ
=32	=32	=32	=32	=32
4GG/	4B/ 4d/ 4g/	16B/LL	16d\LL	16g\LL
.	.	16b/	16dd\	16g\
.	.	16cc#/	16ee\	16g\
.	.	16b/JJ	16gg\JJ	16dd\JJ
4DD/	4A/ 4d/ 4f#/	16a/LL	16ff#\LL	16dd\LL
.	.	16A/	16f#\	16dd\
.	.	16G/	16a\	16dd\
.	.	16A/JJ	16ff#\JJ	16dd\JJ
4GG/	4B/ 4d/ 4g/	16B/LL	16dd\LL	16dd\LL
.	.	16b/	16gg\	16dd\
.	.	16a/	16ff#\	16b\
.	.	16b/JJ	16gg\JJ	16b\JJ
4AA/	4A/ 4c#/ 4e/	16cc#/LL	16ee\LL	16a\LL
.	.	16c#/	16a\	16a\
.	.	16B/	16g\	16ee\
.	.	16c#/JJ	16a\JJ	16cc#\JJ
=33	=33	=33	=33	=33
4D\	4A/ 4d/ 4f#/	16d/LL	16f#/LL	16a\LL
.	.	16dd/	16a/	16ff#\
.	.	16ee/	16a/	16ff#\
.	.	16dd/JJ	16a/JJ	16ff#\JJ
4AA/	4c#/ 4e/ 4a/	16cc#/LL	16a/LL	16ee\LL
.	.	16c#/	16a/	16ee\
.	.	16d/	16a/	16ee\
.	.	16c#/JJ	16a/JJ	16ee\JJ
4BB/	4B/ 4d/ 4f#/	16B/LL	16f#/LL	16dd\LL
.	.	16b/	16f#/	16dd\
.	.	16a/	16f#/	16dd\
.	.	16b/JJ	16f#/JJ	16dd\JJ
4FF#/	4c#/ 4f#/ 4a/	16cc#/LL	16f#/LL	16aa\LL
.	.	16c#/	16f#/	16aa\
.	.	16f#/	16a/	16aa\
.	.	16e/JJ	16a/JJ	16aa\JJ
=34	=34	=34	=34	=34
4GG/	4B/ 4d/ 4g/	16d\LL	16g\LL	16bb\LL
.	.	16dd\	16g\	16bb\
.	.	16ee\	16g\	16bb\
.	.	16gg\JJ	16dd\JJ	16bb\JJ
4DD/	4d/ 4f#/ 4a/	16ff#\LL	16dd\LL	16aa\LL
.	.	16f#\	16dd\	16aa\
.	.	16a\	16dd\	16aa\
.	.	16ff#\JJ	16dd\JJ	16aa\JJ
*	*^	*	*	*
4GG/	4d/ 4b/	2e\	16dd\LL	16dd\LL	16bb\LL
.	.	.	16gg\	16dd\	16bb\
.	.	.	16ff#\	16b\	16bb\
.	.	.	16gg\JJ	16b\JJ	16bb\JJ
4AA/	4c#/ 4a/	.	16ee\LL	16a\LL	16ccc#\LL
.	.	.	16a\	16a\	16cc#\
.	.	.	16g\	16ee\	16cc#\
.	.	.	16a\JJ	16cc#\JJ	16cc#\JJ
*	*v	*v	*	*	*
=35	=35	=35	=35	=35
4D\	4d/ 4f#/ 4a/	16f#/LL	16a\LL	16dd/LL
.	.	16a/	16ff#\	32d/L
.	.	.	.	32e/J
.	.	16a/	16ff#\	16f#/
.	.	16a/JJ	16ff#\JJ	16d/JJ
4AA/	4e/ 4a/ 4cc#/	16a/LL	16ee\LL	16c#/LL
.	.	16a/	16ee\	32cc#/L
.	.	.	.	32dd/J
.	.	16a/	16ee\	16ee/
.	.	16a/JJ	16ee\JJ	16cc#/JJ
4BB/	4d/ 4f#/ 4b/	16f#/LL	16dd\LL	16b/LL
.	.	16f#/	16dd\	32B/L
.	.	.	.	32c#/J
.	.	16f#/	16dd\	16d/
.	.	16f#/JJ	16dd\JJ	16B/JJ
4FF#/	4c#/ 4f#/ 4a/	16f#/LL	16aa\LL	16c#/LL
.	.	16f#/	16aa\	32a/L
.	.	.	.	32g/J
.	.	16a/	16aa\	16f#/
.	.	16a/JJ	16aa\JJ	16e/JJ
=36	=36	=36	=36	=36
*	*^	*	*	*
4GG/	2r	4B/ 4d/ 4g/	16g\LL	16bb\LL	16d/LL
.	.	.	16g\	16bb\	32g/L
.	.	.	.	.	32f#/J
.	.	.	16g\	16bb\	16e/
.	.	.	16dd\JJ	16bb\JJ	16g/JJ
4DD/	.	4A/ 4d/ 4f#/	16dd\LL	16aa\LL	16f#/LL
.	.	.	16dd\	16aa\	32d/L
.	.	.	.	.	32e/J
.	.	.	16dd\	16aa\	16f#/
.	.	.	16dd\JJ	16aa\JJ	16a/JJ
4GG/	4d\	2e/	16dd\LL	16bb\LL	16g/LL
.	.	.	16dd\	16bb\	32b/L
.	.	.	.	.	32a/J
.	.	.	16b\	16bb\	16g/
.	.	.	16b\JJ	16bb\JJ	16f#/JJ
4AA/	4A\ 4c#\	.	16a\LL	16ccc#\LL	16e/LL
.	.	.	16a\	16cc#\	32a/L
.	.	.	.	.	32g/J
.	.	.	16ee\	16cc#\	16f#/
.	.	.	16cc#\JJ	16cc#\JJ	16e/JJ
*	*v	*v	*	*	*
=37	=37	=37	=37	=37
4D\	4A/ 4d/ 4f#/	16a\LL	16dd/LL	16f#/LL
.	.	16ff#\	32d/L	32dd/L
.	.	.	32e/J	32cc#/J
.	.	16ff#\	16f#/	16dd/
.	.	16ff#\JJ	16d/JJ	16f#/JJ
4AA/	4c#/ 4e/ 4a/	16ee\LL	16c#/LL	16a/LL
.	.	16ee\	32cc#/L	32a/L
.	.	.	32dd/J	32b/J
.	.	16ee\	16ee/	16cc#/
.	.	16ee\JJ	16cc#/JJ	16a/JJ
4BB/	4B/ 4d/ 4f#/	16dd\LL	16b/LL	16f#\LL
.	.	16dd\	32B/L	32dd\L
.	.	.	32c#/J	32ee\J
.	.	16dd\	16d/	16ff#\
.	.	16dd\JJ	16B/JJ	16dd\JJ
4FF#/	4c#/ 4f#/ 4a/	16aa\LL	16c#/LL	16ff#\LL
.	.	16aa\	32a/L	32ff#\L
.	.	.	32g/J	32ee\J
.	.	16aa\	16f#/	16dd\
.	.	16aa\JJ	16e/JJ	16cc#\JJ
=38	=38	=38	=38	=38
*	*	*	*	*^
4GG/	4B/ 4d/ 4g/	16bb\LL	16d/LL	1r	16b\LL
.	.	16bb\	32g/L	.	32b\L
.	.	.	32f#/J	.	32a\J
.	.	16bb\	16e/	.	16b\
.	.	16bb\JJ	16g/JJ	.	16cc#\JJ
4DD/	4d/ 4f#/	16aa\LL	16f#/LL	.	16dd\LL
.	.	16aa\	32d/L	.	32ff#\L
.	.	.	32e/J	.	32ee\J
.	.	16aa\	16f#/	.	16dd\
.	.	16aa\JJ	16a/JJ	.	16ff#\JJ
4GG/	4d/ 4g/ 4b/	16bb\LL	16g/LL	.	16gg\LL
.	.	16bb\	32b/L	.	32dd\L
.	.	.	32a/J	.	32cc#\J
.	.	16bb\	16g/	.	16b\
.	.	16bb\JJ	16f#/JJ	.	16b\JJ
4AA/	4c#/ 4e/ 4a/	16ccc#\LL	16e/LL	.	16a/LL
.	.	16cc#\	32a/L	.	16e/
.	.	.	32g/J	.	.
.	.	16cc#\	16f#/	.	16a/
.	.	16cc#\JJ	16e/JJ	.	16a/JJ
*	*	*	*	*v	*v
=39	=39	=39	=39	=39
4D\	4d/ 4f#/	16dd/LL	16f#/LL	4.a/
.	.	32d/L	32dd/L	.
.	.	32e/J	32cc#/J	.
.	.	16f#/	16dd/	.
.	.	16d/JJ	16f#/JJ	.
4AA/	4c#/ 4e/ 4a/	16c#/LL	16a/LL	.
.	.	32cc#/L	32a/L	.
.	.	32dd/J	32b/J	.
.	.	16ee/	16cc#/	8a/
.	.	16cc#/JJ	16a/JJ	.
4BB/	4B/ 4d/ 4f#/	16b/LL	16f#\LL	4.d/
.	.	32B/L	32dd\L	.
.	.	32c#/J	32ee\J	.
.	.	16d/	16ff#\	.
.	.	16B/JJ	16dd\JJ	.
4FF#/	4c#/ 4d/ 4a/	16c#/LL	16ff#\LL	.
.	.	32a/L	32ff#\L	.
.	.	32g/J	32ee\J	.
.	.	16f#/	16dd\	8a/
.	.	16e/JJ	16cc#\JJ	.
=40	=40	=40	=40	=40
4GG/	4B/ 4d/ 4g/	16d/LL	16b\LL	4g/
.	.	32g/L	32b\L	.
.	.	32f#/J	32a\J	.
.	.	16e/	16b\	.
.	.	16g/JJ	16cc#\JJ	.
4DD/	4d/ 4f#/ 4a/	16f#/LL	16dd\LL	4a/
.	.	32d/L	32ff#\L	.
.	.	32e/J	32ee\J	.
.	.	16f#/	16dd\	.
.	.	16a/JJ	16ff#\JJ	.
4GG/	4d/ 4g/ 4b/	16g/LL	16gg\LL	8g/L
.	.	32b/L	32dd\L	.
.	.	32a/J	32cc#\J	.
.	.	16g/	16b\	8d/J
.	.	16f#/JJ	16b\JJ	.
*	*^	*	*	*
4AA/	4e/ 4a/	8.d\L	16e/LL	16a/LL	8.d/L
.	.	.	32a/L	16e/	.
.	.	.	32g/J	.	.
.	.	.	16f#/	16a/	.
.	.	16c#\Jk	16e/JJ	16a/JJ	16c#/Jk
*	*v	*v	*	*	*
=41	=41	=41	=41	=41
4D\	4A/ 4d/ 4f#/	16f#/LL	4a/	8d/L
.	.	32dd/L	.	.
.	.	32cc#/J	.	.
.	.	16dd/	.	8dd/J
.	.	16f#/JJ	.	.
4AA/	4A/ 4c#/ 4e/	16a/LL	8a/	4cc#\
.	.	32a/L	.	.
.	.	32b/J	.	.
.	.	16cc#/	4.d/	.
.	.	16a/JJ	.	.
4BB/	4F#/ 4B/ 4d/	16f#\LL	.	4b\
.	.	32dd\L	.	.
.	.	32ee\J	.	.
.	.	16ff#\	.	.
.	.	16dd\JJ	.	.
4FF#/	4A/ 4d/ 4a/	16ff#\LL	4a/	4a/
.	.	32ff#\L	.	.
.	.	32ee\J	.	.
.	.	16dd\	.	.
.	.	16cc#\JJ	.	.
=42	=42	=42	=42	=42
4GG/	4B/ 4d/ 4g/	16b\LL	4g/	8.d/L
.	.	32b\L	.	.
.	.	32a\J	.	.
.	.	16b\	.	.
.	.	16cc#\JJ	.	16e/Jk
4DD/	4d/ 4f#/ 4a/	16dd\LL	4a/	4f#/
.	.	32ff#\L	.	.
.	.	32ee\J	.	.
.	.	16dd\	.	.
.	.	16ff#\JJ	.	.
4GG/	4d/ 4g/ 4b/	16gg\LL	8g/L	4b\
.	.	32dd\L	.	.
.	.	32cc#\J	.	.
.	.	16b\	8d/J	.
.	.	16b\JJ	.	.
*	*^	*	*	*
4AA/	4e/ 4a/	8.d\L	16a/LL	8.d/L	8.e/L
.	.	.	16e/	.	.
.	.	.	16a/	.	.
.	.	16c#\Jk	16a/JJ	16c#/Jk	16e/Jk
*	*v	*v	*	*	*
=43	=43	=43	=43	=43
4D\	4d/ 4f#/ 4a/	4.a/	8d/L	8.f#\L
.	.	.	8dd/J	.
.	.	.	.	16ff#\Jk
4AA/	4e/ 4a/ 4cc#/	.	4cc#\	16ff#\LL
.	.	.	.	16gg\
.	.	8a/	.	16ff#\
.	.	.	.	16ee\JJ
4BB/	4d/ 4f#/ 4b/	4.d/	4b\	8.dd\L
.	.	.	.	16dd\Jk
4FF#/	4d/ 4a/	.	4a/	16dd\LL
.	.	.	.	16ee\
.	.	8a/	.	16dd\
.	.	.	.	16cc#\JJ
=44	=44	=44	=44	=44
4GG/	4B/ 4g/	4g/	8.d/L	4b\
.	.	.	16e/Jk	.
4DD/	4d/ 4f#/ 4a/	4a/	4f#/	4dd\
4GG/	4d/ 4g/ 4b/	8g/L	4b\	16dd\LL
.	.	.	.	16cc#\
.	.	8d/J	.	16b\
.	.	.	.	16cc#\JJ
*	*^	*	*	*
4AA/	4e/ 4a/	8.d\L	8.d/L	8.e/L	8.a/L
.	.	16c#\Jk	16c#/Jk	16e/Jk	16a/Jk
*	*v	*v	*	*	*
=45	=45	=45	=45	=45
4D\	4d/ 4f#/ 4a/	8d/L	8.f#\L	8.a\L
.	.	8dd/J	.	.
.	.	.	16ff#\Jk	16aa\Jk
4AA/	4e/ 4a/ 4cc#/	4cc#\	16ff#\LL	16aa\LL
.	.	.	16gg\	16bb\
.	.	.	16ff#\	16aa\
.	.	.	16ee\JJ	16gg\JJ
4BB/	4d/ 4f#/ 4b/	4b\	8.dd\L	8.ff#\L
.	.	.	16dd\Jk	16ff#\Jk
4FF#/	4d/ 4a/ 4dd/	4a/	16dd\LL	16ff#\LL
.	.	.	16ee\	16gg\
.	.	.	16dd\	16ff#\
.	.	.	16cc#\JJ	16ee\JJ
=46	=46	=46	=46	=46
4GG/	4d/ 4b/	8.d/L	4b\	16dd\LL
.	.	.	.	16ccn\
.	.	.	.	16b\
.	.	16e/Jk	.	16cc\JJ
4DD/	4d/ 4f#/ 4a/	4f#/	4dd\	8.a/L
.	.	.	.	16a/Jk
4GG/	4d/ 4g/ 4b/	4b\	16dd\LL	8g\L
.	.	.	16ccn\	.
.	.	.	16b\	8dd\J
.	.	.	16cc\JJ	.
4AA/	4c#/ 4e/ 4a/	8.e/L	8.a/L	8.cc#\L
.	.	16e/Jk	16a/Jk	16cc#\Jk
=47	=47	=47	=47	=47
*	*^	*	*	*
4D\	8d/ 8f#/ 8a/	2r	8.f#\L	8.a\L	8dd\
.	4f#/ 4a/ 4dd/	.	.	.	4dd\
.	.	.	16ff#\Jk	16aa\Jk	.
4AA/	.	.	16ff#\LL	16aa\LL	.
.	.	.	16gg\	16bb\	.
.	8e/ 8a/ [8cc#/	.	16ff#\	16aa\	4cc#\
.	.	.	16ee\JJ	16gg\JJ	.
4BB/	8cc#/]	4d\ 4f#\	8.dd\L	8.ff#\L	.
.	4b/	.	.	.	4b\
.	.	.	16dd\Jk	16ff#\Jk	.
4FF#/	.	8d\ 8f#\L	16dd\LL	16ff#\LL	.
.	.	.	16ee\	16gg\	.
.	[8a/	8c#\ 8e\J	16dd\	16ff#\	[8a/
.	.	.	16cc#\JJ	16ee\JJ	.
=48	=48	=48	=48	=48	=48
4GG/	8a/]	4B\ 4d\	4b\	16dd\LL	8a/]
.	.	.	.	16ccn\	.
.	4g/	.	.	16b\	4g/
.	.	.	.	16cc\JJ	.
4DD/	.	4A\ [4d\	4dd\	8.a/L	.
.	[8f#/	.	.	.	[8f#/
.	.	.	.	16a/Jk	.
4GG/	8.f#/L]	4B\ 4d\]	16dd\LL	8g\L	8.f#/L]
.	.	.	16ccn\	.	.
.	.	.	16b\	8dd\J	.
.	16e/Jk	.	16cc\JJ	.	16e/Jk
4AA/	4e/	4A\ 4c#\	8.a/L	8.cc#\L	4e/
.	.	.	16a/Jk	16cc#\Jk	.
=49	=49	=49	=49	=49	=49
4D\	8A/ 8d/ 8f#/	2r	8.a\L	8dd\	8f#/
.	4f#/ 4a/ 4dd/	.	.	4dd\	4ff#\
.	.	.	16aa\Jk	.	.
4AA/	.	.	16aa\LL	.	.
.	.	.	16bb\	.	.
.	8e/ 8a/ [8cc#/	.	16aa\	4cc#\	8ee\
.	.	.	16gg\JJ	.	.
4BB/	8cc#/]	4d\ 4f#\	8.ff#\L	.	8dd\
.	4b/	.	.	4b\	4ddd\
.	.	.	16ff#\Jk	.	.
4FF#/	.	8d\ 8f#\L	16ff#\LL	.	.
.	.	.	16gg\	.	.
.	[8a/	8cn\ 8e\J	16ff#\	[8a/	8cccn\
.	.	.	16ee\JJ	.	.
=50	=50	=50	=50	=50	=50
4GG/	8a/]	4B\ 4d\	16dd\LL	8a/]	4bb\
.	.	.	16ccn\	.	.
.	4g/	.	16b\	4g/	.
.	.	.	16cc\JJ	.	.
4DD/	.	4A\ [4d\	8.a/L	.	8ddd\L
.	[8f#/	.	.	[8f#/	8aa\J
.	.	.	16a/Jk	.	.
4GG/	8.f#/L]	4B\ 4d\]	8g\L	8.f#/L]	4bb\
.	.	.	8dd\J	.	.
.	16e/Jk	.	.	16e/Jk	.
4AA/	4e/	4A\ 4c#\	8.cc#\L	4e/	4aa\
.	.	.	16cc#\Jk	.	.
=51	=51	=51	=51	=51	=51
4D\	8A/ 8d/ 8f#/	2r	8dd\	8f#/	4aa\
.	4f#/ 4a/ 4dd/	.	4dd\	4ff#\	.
4AA/	.	.	.	.	8.a/L
.	8e/ 8a/ 8cc#/	.	4cc#\	8ee\	.
.	.	.	.	.	16g/Jk
4BB/	8cc#/	4d\ 4f#\	.	8dd\	4f#/
.	4b/	.	4b\	4ddd\	.
4FF#/	.	8d\ 8f#\L	.	.	8.ff#\L
.	[8a/	8cn\ 8e\J	[8a/	8cccn\	.
.	.	.	.	.	16ee\Jk
=52	=52	=52	=52	=52	=52
4GG/	8a/]	4B\ 4d\	8a/]	4bb\	4.dd\
.	4g/	.	4g/	.	.
4DD/	.	4A\ [4d\	.	8ddd\L	.
.	[8f#/	.	[8f#/	8aa\J	8dd\
4GG/	8.f#/L]	4B\ 4d\]	8.f#/L]	4bb\	4dd\
.	16e/Jk	.	16e/Jk	.	.
4AA/	4e/	4A\ 4c#\	4e/	4aa\	4cc#\
=53	=53	=53	=53	=53	=53
4D\	4.f#/	4A\ 4d\	8f#/	4aa\	8dd/L
.	.	.	4ff#\	.	8d/J
4AA/	.	4A\ 4c#\	.	8.a/L	8c#/L
.	8e/	.	8ee\	.	8cc#/J
.	.	.	.	16g/Jk	.
4BB/	4F#/ 4B/ 4d/	2r	8dd\	4f#/	8b/L
.	.	.	4ddd\	.	8B/J
4FF#/	4d/ 4a/	.	.	8.ff#\L	8A/L
.	.	.	8cccn\	.	8a/J
.	.	.	.	16ee\Jk	.
*	*v	*v	*	*	*
=54	=54	=54	=54	=54
4GG/	4d/ 4g/ 4b/	4bb\	4.dd\	8g\L
.	.	.	.	8gg\J
4DD/	4f#/ 4a/ 4dd/	8ddd\L	.	8ff#\L
.	.	8aa\J	8dd\	8f#\J
4GG/	4e/ 4b/ 4dd/	4bb\	4dd\	8e/L
.	.	.	.	8b/J
4AA/	4e/ 4a/ 4cc#/	4aa\	4cc#\	8e/L
.	.	.	.	8ee/J
=55	=55	=55	=55	=55
4D\	4f#/ 4a/ 4dd/	4aa\	8dd/L	8ff#\L
.	.	.	8d/J	8f#\J
4AA/	4e/ 4a/ 4cc#/	8.a/L	8c#/L	8e/L
.	.	.	8cc#/J	8ee/J
.	.	16g/Jk	.	.
4BB/	4d/ 4f#/ 4b/	4f#/	8b/L	8dd/L
.	.	.	8B/J	8d/J
4FF#/	4c#/ 4f#/ 4a/	8.ff#\L	8A/L	8c#/L
.	.	.	8a/J	8cc#/J
.	.	16ee\Jk	.	.
=56	=56	=56	=56	=56
4GG/	4B/ 4d/ 4g/	4.dd\	8g\L	8b\L
.	.	.	8gg\J	8bb\J
4DD/	4A/ 4d/ 4f#/	.	8ff#\L	8aa\L
.	.	8dd\	8f#\J	8a\J
4GG/	4B/ 4d/ 4e/	4dd\	8e/L	8.g\L
.	.	.	8b/J	.
.	.	.	.	16ee\Jk
4AA/	4A/ 4c#/ 4a/	4cc#\	8e/L	8a/L
.	.	.	8ee/J	8a/J
=57	=57	=57	=57	=57
4D\	4A/ 4d/ 4f#/	4dd\	4ff#\	4a/
4r	4r	4r	4r	4r
2r	2r	2r	2r	2r
=	=	=	=	=
*-	*-	*-	*-	*-
!!!ENC: Craig Stuart Sapp
!!!END: 2005/04/17/
